X:1
T:French Suite V Allemande
T:BWV 816
T:J. S. Bach
%%score { ( 1 3 4 ) | ( 2 5 ) }
L:1/8
M:4/4
K:G
V:1 treble nm="Harp"
V:3 treble 
V:4 treble 
V:2 bass 
V:5 bass 
V:1
 B/ | B>c d/4c/4d/4c/4d/4c/4B/4c/4 d2- d/d/f/g/ | e/g/d/g/ c/B/c/a/ c/B/A/G/ B2- | %3
 B/e/A/e/ G/F/G/e/ G/F/E/D/ E/F/G/F/ | G/A/G/A/ B/4B/4A/4B/4B/4A/4G/4A/4 B2- B/B/e/^d/ | %5
 e/f/e/f/ g/4f/4g/4f/4g/4f/4e/4f/4 [gg]2- g/f/e/d/ | ^c/e/B/e/ A/g/f/e/ f/a/e/a/ d/=c/B/A/ | %7
 B/d/A/d/ G/d/F/d/ E/d/^c/B/ c/e/A/g/ | f/e/f/d/ ^c>d d2- d/f/a/c'/ | b>a g/f/e/d/ g>f e/d/^c/B/ | %10
 ^c/A/d/A/ e/A/g/e/ =f/A/d/e/ f/d/^f/d/ | g/d/_b/a/ ^g/d/^c/=g/ f/=c/B/e/ A/d/G/^c/ | d4 d7/2 B/ | %13
 B>c d/4c/4d/4c/4d/4c/4B/4c/4 d2- d/d/f/g/ | e/g/d/g/ c/B/c/a/ c/B/A/G/ B2- | %15
 B/e/A/e/ G/F/G/e/ G/F/E/D/ E/F/G/F/ | G/A/G/A/ B/4B/4A/4B/4B/4A/4G/4A/4 B2- B/B/e/^d/ | %17
 e/f/e/f/ g/4f/4g/4f/4g/4f/4e/4f/4 [gg]2- g/f/e/d/ | ^c/e/B/e/ A/g/f/e/ f/a/e/a/ d/=c/B/A/ | %19
 B/d/A/d/ G/d/F/d/ E/d/^c/B/ c/e/A/g/ | f/e/f/d/ ^c>d d2- d/f/a/c'/ | b>a g/f/e/d/ g>f e/d/^c/B/ | %22
 ^c/A/d/A/ e/A/g/e/ =f/A/d/e/ f/d/^f/d/ | g/d/_b/a/ ^g/d/^c/=g/ f/=c/B/e/ A/d/G/^c/ | d4 d7/2 f/ | %25
 f>g a/4g/4a/4g/4a/4g/4f/4g/4 a2- a/c/d/A/ | B/^d/e/g/ f/c/B/a/ g/d/e/g/ c/4B/4cc/ | %27
 c/A/B/e/ B/4A/4B/4A/4B/4A/4A/ A/F/G/c/ =F/4E/4FF/ | =F/^D/E/A/ G/E/^F/B/ A/F/G/c/ B/G/A/d/ | %29
 c/A/B/d/ g>g g/B/c/e/ z/ g/f/a/ | ^d>e- ee/d/ e2- e2- | e/A/B/G/ A/F/G/e/ G/E/F/A/ c2- | %32
 c/A/B/d/ =f2- f/B/c/e/ ^fg | ab e>a g/e/f Be | F/D/G/D/ A/D/c/A/ _B/D/G/A/ B/G/=B/G/ | %35
 c/G/_e/d/ ^c/G/F/=c/ B/=F/E/A/ D/G/C/^F/ | G4 G7/2 f/ | %37
 f>g a/4g/4a/4g/4a/4g/4f/4g/4 a2- a/c/d/A/ | B/^d/e/g/ f/c/B/a/ g/d/e/g/ c/4B/4cc/ | %39
 c/A/B/e/ B/4A/4B/4A/4B/4A/4A/ A/F/G/c/ =F/4E/4FF/ | =F/^D/E/A/ G/E/^F/B/ A/F/G/c/ B/G/A/d/ | %41
 c/A/B/d/ g>g g/B/c/e/ z/ g/f/a/ | ^d>e- ee/d/ e2- e2- | e/A/B/G/ A/F/G/e/ G/E/F/A/ c2- | %44
 c/A/B/d/ =f2- f/B/c/e/ ^fg | ab e>a g/e/f Be | F/D/G/D/ A/D/c/A/ _B/D/G/A/ B/G/=B/G/ | %47
 c/G/_e/d/ ^c/G/F/=c/ B/=F/E/A/ D/G/C/^F/ | G4- G7/2 z/ |] %49
V:2
 z/ | G,2 A,2 B,3 B, | CB, A,2 G,2- G,/F,/E,/D,/ | ^C,3 C, D,3 =C, | %4
 B,,2 A,,2 z/ G,,/B,,/D,/ G,A,/B,/ | CG,A,B, E/B,/G,/B,/ E,G, | A,3 A, D,E,F,D, | G,4 G,E,A,,^C, | %8
 D,>E, F,G, F,/ z/ G,/ z/ A,/ z/ F,/ z/ | G,/D/A,/D/ B,/D/G,/D/ E,/D/F,/D/ G,/D/E,/D/ | %10
 A,/^C/B,/D/ C/E/A,/C/ D=C_B,A, | _B,G,E,A, DG, A,2 | D2- D/^C/D- D7/2 z/ | G,2 A,2 B,3 B, | %14
 CB, A,2 G,2- G,/F,/E,/D,/ | ^C,3 C, D,3 =C, | B,,2 A,,2 z/ G,,/B,,/D,/ G,A,/B,/ | %17
 CG,A,B, E/B,/G,/B,/ E,G, | A,3 A, D,E,F,D, | G,4 G,E,A,,^C, | %20
 D,>E, F,G, F,/ z/ G,/ z/ A,/ z/ F,/ z/ | G,/D/A,/D/ B,/D/G,/D/ E,/D/F,/D/ G,/D/E,/D/ | %22
 A,/^C/B,/D/ C/E/A,/C/ D=C_B,A, | _B,G,E,A, DG, A,2 | D2- D/^C/D- D7/2 z/ | %25
 D,/F,/A,/C/ B,/A,/B,/G,/ F,2- F,F, | G, E,2 ^D, E,2 z/ E,/F,/=D,/ | %27
 G,G,, z/ ^C,/^D,/B,,/ E,E,, z/ A,,/B,,/G,,/ | C,^C,D,^D, E,E,,F,,F, | %29
 G,G,, z/ E,/G,/B,/- B,G, C2 | B,2 B,2 B, z E/^C/D/B,/ | ^C2 z/ A,/B,/C/ D2- D/A,/F,/D,/ | %32
 G,2- G,/A,/B,/G,/ C2- C/A,/B,/D/ | F,/A,/G,/B,/ C,/E,/A,,/C,/ D,2 G,,^C, | %34
 D,/F,/E,/G,/ F,/A,/D,/F,/ G,=F,_E,D, | _E,C,A,,D, G,C, D,2 | G,2- G,/F,/G,- G,7/2 z/ | %37
 D,/F,/A,/C/ B,/A,/B,/G,/ F,2- F,F, | G, E,2 ^D, E,2 z/ E,/F,/=D,/ | %39
 G,G,, z/ ^C,/^D,/B,,/ E,E,, z/ A,,/B,,/G,,/ | C,^C,D,^D, E,E,,F,,F, | %41
 G,G,, z/ E,/G,/B,/- B,G, C2 | B,2 B,2 B, z E/^C/D/B,/ | ^C2 z/ A,/B,/C/ D2- D/A,/F,/D,/ | %44
 G,2- G,/A,/B,/G,/ C2- C/A,/B,/D/ | F,/A,/G,/B,/ C,/E,/A,,/C,/ D,2 G,,^C, | %46
 D,/F,/E,/G,/ F,/A,/D,/F,/ G,=F,_E,D, | _E,C,A,,D, G,C, D,2 | G,2- G,/F,/G,- G,7/2 z/ |] %49
V:3
 x/ | z/ B,/D/G/- G/G/F/E/ z/ D/F/G/- G2- | G3 F z B,DG | %3
 E[I:staff +1] E, A,2[I:staff -1] z[I:staff +1] F, A,2 | D, G,2 F, G,2[I:staff -1] z2 | %5
 z[I:staff +1] E2 ^D E2[I:staff -1] z2 | z[I:staff +1] B, ^C2 D4- | DCB,A, G,3 E, | x8 | x8 | x8 | %11
[I:staff -1] z4 z B A G- | G/G/A/E/ F2- F7/2 z/ | G,/B,/D/G/- G/G/F/E/ z/ D/F/G/- G2- | %14
 G3 F z B,DG | E[I:staff +1] E, A,2[I:staff -1] z[I:staff +1] F, A,2 | %16
 D, G,2 F, G,2[I:staff -1] z2 | z[I:staff +1] E2 ^D E2[I:staff -1] z2 | z[I:staff +1] B, ^C2 D4- | %19
 DCB,A, G,3 E, | x8 | x8 | x8 |[I:staff -1] z4 z B A G- | G/G/A/E/ F2- F7/2 x/ | %25
 d3/2 z/ z2[I:staff +1] F,/A,/C/E/ DA, | x8 | x8 | x8 |[I:staff -1] z6 A2- | %30
 A/A/G z/ B3/2 z/ B3/2- B2 | z4 z F- F2 | z2 z/ c/d/B/ G2 z/ dd/- | d/dd/- d/B/c- c>A- A/GG/ | x8 | %35
 z4 z E DC- | C/C/D/A,/ B,2- B,7/2 x/ | d3/2 z/ z2[I:staff +1] F,/A,/C/E/ DA, | x8 | x8 | x8 | %41
[I:staff -1] z6 A2- | A/A/G z/ B3/2 z/ B3/2- B2 | z4 z F- F2 | z2 z/ c/d/B/ G2 z/ dd/- | %45
 d/dd/- d/B/c- c>A- A/GG/ | x8 | z4 z E DC- | C/-C/D/A,/ B,2- B,7/2 x/ |] %49
V:4
 x/ | z6 B z | x8 | x8 | x8 | x8 | x8 | x8 | x8 | x8 | x8 | z4 z3/2 G/ FE | z A- A2- A7/2 z/ | %13
 z6 B z | x8 | x8 | x8 | x8 | x8 | x8 | x8 | x8 | x8 | z4 z3/2 G/ FE | z A- A2- A7/2 x/ | %25
 A3/2 z/ z2 z4 | x8 | x8 | x8 | x8 | z2 F2 z G- G2 | z4 z3/2 A/- A2 | x8 | x8 | x8 | %35
 z4 z3/2[I:staff +1] C/ B,A, |[I:staff -1] z D- D2- D7/2 x/ | A3/2 z/ z2 z4 | x8 | x8 | x8 | x8 | %42
 z2 F2 z G- G2 | z4 z3/2 A/- A2 | x8 | x8 | x8 | z4 z3/2[I:staff +1] C/ B,A, | %48
[I:staff -1] z D- D2- D7/2 x/ |] %49
V:5
 x/ | x8 | x8 | x8 | x8 | x8 | x8 | x8 | D,G,, A,,2 D,/D/E,/D/ F,/D/D,/D/ | x8 | x8 | x8 | %12
 D2 z D/A,/ D,7/2 z/ | x8 | x8 | x8 | x8 | x8 | x8 | x8 | D,G,, A,,2 D,/D/E,/D/ F,/D/D,/D/ | x8 | %22
 x8 | x8 | D2 z D/A,/ D,7/2 x/ | x8 | G,C,A,,B,, E,,2 z2 | x8 | x8 | z2 z/ E,3/2 C,2 z A, | %30
 B,E,B,B,, E,>B, z2 | x8 | x8 | z4 z D,,3- | D,,/ z/ z z2 z4 | x8 | G,2 z G,/D,/ G,,7/2 x/ | x8 | %38
 G,C,A,,B,, E,,2 z2 | x8 | x8 | z2 z/ E,3/2 C,2 z A, | B,E,B,B,, E,>B, z2 | x8 | x8 | z4 z D,,3- | %46
 D,,/ z/ z z2 z4 | x8 | G,2 z G,/D,/ G,,7/2 x/ |] %49

